packages/tokens/icons/caseSubmission/size16Px.svg

<svg viewBox="0 0 16 16" fill="none" xmlns="http://www.w3.org/2000/svg" width="1em" height="1em"><path fill-rule="evenodd" clip-rule="evenodd" d="M14.0001 11.5C14.0001 11.2239 13.7763 11 13.5001 11C13.224 11 13.0001 11.2239 13.0001 11.5V12.5C13.0001 12.7761 12.7763 13 12.5001 13H10.8663C10.6934 12.7011 10.3703 12.5 10.0001 12.5C9.44784 12.5 9.00012 12.9477 9.00012 13.5C9.00012 14.0523 9.44784 14.5 10.0001 14.5C10.3703 14.5 10.6934 14.2989 10.8663 14H12.5001C13.3285 14 14.0001 13.3284 14.0001 12.5V11.5Z" fill="currentColor"/><path fill-rule="evenodd" clip-rule="evenodd" d="M8.00012 11C7.44784 11 7.00012 10.5523 7.00012 10C7.00012 9.44772 7.44784 9 8.00012 9V11ZM6.00012 10C6.00012 8.89543 6.89555 8 8.00012 8C8.55241 8 9.00012 8.44772 9.00012 9V11C9.00012 11.5523 8.55241 12 8.00012 12C6.89555 12 6.00012 11.1046 6.00012 10ZM13.0001 11C13.5524 11 14.0001 10.5523 14.0001 10C14.0001 9.44772 13.5524 9 13.0001 9V11ZM15.0001 10C15.0001 8.89543 14.1047 8 13.0001 8C12.4478 8 12.0001 8.44772 12.0001 9V11C12.0001 11.5523 12.4478 12 13.0001 12C14.1047 12 15.0001 11.1046 15.0001 10Z" fill="currentColor"/><path d="M14.5001 10V7.5C14.5001 5.29086 12.7093 3.5 10.5001 3.5V3.5C8.29098 3.5 6.50012 5.29086 6.50012 7.5V10" stroke="currentColor" stroke-linecap="round"/><path d="M3.5 8H1.5" stroke="currentColor" stroke-linecap="round"/><path d="M3 9.41421L4.41421 8L3 6.58579" stroke="currentColor" stroke-linecap="round" stroke-linejoin="round"/></svg>

<svg xmlns="http://www.w3.org/2000/svg" fill="none" viewBox="0 0 16 16" width="1em" height="1em"><path fill="currentColor" fill-rule="evenodd" d="M14 11.5a.5.5 0 1 0-1 0v1a.5.5 0 0 1-.5.5h-1.634a1 1 0 1 0 0 1H12.5a1.5 1.5 0 0 0 1.5-1.5v-1Z" clip-rule="evenodd"/><path fill="currentColor" fill-rule="evenodd" d="M8 11a1 1 0 1 1 0-2v2Zm-2-1a2 2 0 0 1 2-2 1 1 0 0 1 1 1v2a1 1 0 0 1-1 1 2 2 0 0 1-2-2Zm7 1a1 1 0 1 0 0-2v2Zm2-1a2 2 0 0 0-2-2 1 1 0 0 0-1 1v2a1 1 0 0 0 1 1 2 2 0 0 0 2-2Z" clip-rule="evenodd"/><path stroke="currentColor" stroke-linecap="round" d="M14.5 10V7.5a4 4 0 0 0-4-4v0a4 4 0 0 0-4 4V10m-3-2h-2"/><path stroke="currentColor" stroke-linecap="round" stroke-linejoin="round" d="M3 9.414 4.414 8 3 6.586"/></svg>
